X:1449
T:Bill McCormick's
R:Jig
S:Jimmy Doyle, Kerry (accordion)
D:From RTE 'The Pure Drop'
M:6/8
Z:Bernie Stocks
K:D
|: f2d edB | AdB AFA | BAF DFA |1 Bcd ede :|2 Bdc dze :: f2f afa | 
baf fed | eff edB | ABd ede | eff afa | baf fed | efd edB | Adc d2e :|


